X:1
T:Things Ain't What They Use to Be 
C:Duke Ellington
M:4/4
L:1/8
K:F
"F7"(3zCF (3Acd c2dF-|F3 A z4|"F7"(3zCF (3Acd c2dF-|F3 A z4|
"Bb7"(3zFB (3dfg f2gB-|B3_d z dcA|"F7"(3zCF (3Acd c2dF-|F3 A z2zc|
"Gm7"f_e c4 zc|(3f_ec (3f_ec "C7#9"e2 "C7"=ef-|"F7"f2z2 "Ab7"z4|"Gm7"z4 "C7"z4:|
